X: 3
T:Staines Morris
M:4/4
L:1/8
S:Wright 1713
K:G
d2g2f2e2|agfe dcBA|=f2f2g2fe|dcBA G4:||B2B2c2c2|BAGA B2B2|d2d2g2fe|dcBAG
